public/formular-icons/greece/lower-alpha.svg

<svg style="vertical-align:-.025ex" xmlns="http://www.w3.org/2000/svg" width="1.448ex" height="1.025ex" viewBox="0 -442 640 453" xmlns:xlink="http://www.w3.org/1999/xlink"><defs><path id="a" d="M34 156q0 114 86 200t189 86q70 0 112-40t57-98q6-29 7-67v-29q49 74 75 166 4 14 6 16t16 3q21 0 21-8 0-9-9-39t-36-85-61-100l-11-14 1-24q2-56 8-76t19-21q14 2 26 11t17 23q2 7 5 8t15 2q20 0 20-8 0-6-6-19-12-24-35-38t-44-15h-7q-67 0-91 72l-3 7-11-8q-10-8-30-20t-45-23-58-20-64-9q-79 0-124 50T34 156ZM208 26q49 0 98 21t73 43l24 22q-2 143-7 178-14 115-92 115-69 0-121-73-27-40-44-108t-18-104q0-49 25-71t62-23Z"/></defs><g stroke="currentColor" fill="currentColor" stroke-width="0"><use data-c="1D6FC" xlink:href="#a" transform="scale(1 -1)"/></g></svg>

<svg style="vertical-align: -0.025ex" xmlns="http://www.w3.org/2000/svg" width="1.448ex" height="1.025ex" role="img" focusable="false" viewBox="0 -442 640 453" xmlns:xlink="http://www.w3.org/1999/xlink"><defs><path id="MJX-84-TEX-I-1D6FC" d="M34 156Q34 270 120 356T309 442Q379 442 421 402T478 304Q484 275 485 237V208Q534 282 560 374Q564 388 566 390T582 393Q603 393 603 385Q603 376 594 346T558 261T497 161L486 147L487 123Q489 67 495 47T514 26Q528 28 540 37T557 60Q559 67 562 68T577 70Q597 70 597 62Q597 56 591 43Q579 19 556 5T512 -10H505Q438 -10 414 62L411 69L400 61Q390 53 370 41T325 18T267 -2T203 -11Q124 -11 79 39T34 156ZM208 26Q257 26 306 47T379 90L403 112Q401 255 396 290Q382 405 304 405Q235 405 183 332Q156 292 139 224T121 120Q121 71 146 49T208 26Z"></path></defs><g stroke="currentColor" fill="currentColor" stroke-width="0" transform="scale(1,-1)"><g data-mml-node="math"><g data-mml-node="mi"><use data-c="1D6FC" xlink:href="#MJX-84-TEX-I-1D6FC"></use></g></g></g></svg>
